X:1
T:Piano Sonata No. 2
T:To M. PRESSMAN
T:Piano Sonata N o 2 1931 revision
T:I.
T:SERGEI RACHMANINOV Op. 36           
C:Sergei Rachmaninoff
%%score { ( 1 3 4 ) | ( 2 5 6 7 ) }
L:1/8
Q:1/4=90
M:4/4
K:Db
V:1 treble nm="Piano" snm="Pno."
V:3 treble 
V:4 treble 
V:2 bass 
V:5 bass 
V:6 bass 
V:7 bass 
V:1
"^Allegro agitato."!f! x2 | %1
 !fermata!z3/2 !>!!fermata![fbf']/ !fermata!z (3[df]/"^m.g."x/F/ (6:4:6[df]/x/F/[df]/x/F/ (6:4:6[df]/x/F/[df]/x/F/ | %2
[M:2/4] (3(!tenuto![df]/F/[Bd]/) z (6:4:6z/!mf! (F/[Bd]/!tenuto!f/F/[Bd]/) | %3
[M:4/4] (6:4:6z/ (F/[Bd]/!tenuto!f/!>(!F/[Bd]/)!>)! (6:4:6z/ (F/[Bd]/!tenuto!f/F/"_dim."[Bd]/) (6:4:6z/ (G,/[B,D]/F/G,/[B,D]/ (3G,/B,/D/) (3z/ z/[K:bass] [F,D]/- | %4
!p! (6:4:4[F,D][F,DF]/-[F,DF][F,C]/- (6:4:4[F,C][F,CF]/-"_cresc."[F,CF][F,B,]/- (6:4:4[F,B,][F,B,F]/-[F,B,F][F,A,]/- (6:4:4[F,A,][F,A,F]/-[F,A,F]!>![G,,G,]/- | %5
!ff! [G,,G,]-(3:2:2[G,,G,][K:treble]!>![fbf']/ z (3[df]/"^m.g."x/F/ (6:4:6[df]/x/F/[df]/x/F/ (6:4:6[df]/x/F/[df]/x/F/ | %6
[M:2/4] (3([df]/F/[Bd]/) z (6:4:6z/!mf! (F/[Bd]/f/F/[Bd]/) | %7
[M:4/4] (6:4:6z/ (F/[Bd]/f/!>(!F/[Bd]/)!>)! (6:4:6z/ (F/[Bd]/f/F/"_dim."[Bd]/) (6:4:6z/ (G,/[B,D]/F/G,/[B,D]/ (3G,/B,/D/) (3z/ z/[K:bass] [G,D]/- | %8
!p! (6:4:4[G,D][F,DF]/-[F,DF][G,C]/- (6:4:4[G,C][F,CF]/-"_cresc."[F,CF][G,B,]/- (6:4:4[G,B,][F,B,F]/-[F,B,F][G,=A,]/- (6:4:4[G,A,][F,A,F]/-[F,A,F]!>![A,,_A,]/- | %9
!ff! [A,,A,]-(3:2:2[A,,A,][K:treble]!>![fb=d'f']/ z (3[=df]/(F/B/ (6:4:6!tenuto![df]/F/[Bd]/)z/z/!mf!([Bd]/ (6:4:6!tenuto!f/F/[Bd]/)z/(F/[Bd]/ | %10
 (6:4:6!tenuto!f/F/[B=d]/)z/!>(!(F/[Bd]/!>)! (3!tenuto!f/F/[Bd]/)[Q:1/4=90]"^90" z!f! (!tenuto![_cda_c']2 !tenuto![Bdgb]!tenuto![Adfa]) | %11
 (!tenuto![^G^c^e^g]3 ^f)[Q:1/4=80]"^80" (=f2[Q:1/4=76][Q:1/4=74]"^84" =e>[Q:1/4=70]_e) | %12
"^poco meno mosso"!p! (!tenuto!e =d2)!<(! e!>(! (!tenuto!e!<)! d2)!>)!!<(! d!<)! | %13
!>(! (!tenuto!=d!>)! ^c2)!<(! d[Q:1/4=66]"^66"!>(! (!tenuto!d!<)!!>)! c2)[Q:1/4=66] (3:2:2x (!fermata!c/ | %14
!p!"_accelerando. al tempo I"[Q:1/4=64]"^64" (6:4:4=A)_G/=A,[Q:1/4=68]"^68"(=c/ (6:4:4A)F/A,[Q:1/4=70]"^70"(c/ (6:4:4_A)=E/B,(c/ (6:4:4=A)[Q:1/4=72]"^72"F/A,(f/ | %15
"_cresc." (6:4:4d)[Q:1/4=75]"^75"G/=A,(c/ (6:4:4=A)F/A,(c/ (6:4:4_A)=E/B,(c/ (6:4:4=A)F/A,(B/ | %16
 (6:4:3d3/2)[Q:1/4=80]"^80"x(=A/ (6:4:3c3/2)x[Q:1/4=86]"^86"(d/ (6:4:3f3/2)x(c/ (6:4:3e3/2)xf/ | %17
[M:2/4] (3a3/2x(e/ (3g3/2)xg/- |!f! (3[gb]3/2xg/- (3[Bgb]3/2x[Q:1/4=89]"^89"f/- | %19
"_cresc." (3[Bfb]3/2xe/ (3[Bb]3/2x_d/ | (3[Bb]3/2xc/ (3[Bb]3/2xB/ | %21
 (3[Bb]3/2x_c/[Q:1/4=92]"^92" (3[Bb]3/2x=c/ | %22
 (3[Bb]3/2xd/ (3[=A=a]3/2[Q:1/4=70]"^70" [DAd] !fermata!z/ | %23
[M:4/4]!ff![Q:1/4=90]"^90" !fermata!z [B,DF]- !fermata![B,DF]/[B,DF][B,DF]/ z [Bdf]- !fermata![Bdf]/[Bdf][Bdf]/ | %24
 z (3([d'f']/e'/=d'/ (3_d'/b/g/(3f/e/=d/ (3_d/B/G/(3F/E/=D/ (3_D/[I:staff +1]B,/G,/(3F,/E,/=D,/) | %25
[I:staff -1] z [B,DF]- !fermata![B,DF]/[B,DF][B,DF]/ z [Bdf]- !fermata![Bdf]/[Bdf][Bdf]/ | %26
 z (3[d'f']/e'/=d'/ (3_d'/b/g/(3f/e/=d/ (3_d/B/G/(3F/E/=D/ (3_D/[I:staff +1]B,/G,/(3F,/E,/=D,/ | %27
[I:staff -1] (3z/ z/!mf! (g/(3[df]/B/g/ (3[ce]/A/g/(3[Bd]/G/g/"_cresc." (3[Ac]/E/)(a/(3[eg]/c/a/ (3[df]/B/a/(3[ce]/A/a/ | %28
 (3[Bd]/F/)(b/(3[fa]/d/b/ (3[eg]/c/b/(3[df]/B/b/ (3[ce]/G/)(c'/(3[gb]/c/c'/ (3[fa]/d/c'/(3g/e/c'/ | %29
[Q:1/4=86]"^86"!>(! f) x3/4!>)!!p!!8va(! (2:1:1c''/ g'3/2x/4(2:1:1(b'/ f'3/2)x/4(2:1:1(b'/ e'3/2) x/4 (2:1:1(f'/ | %30
 b3/2)x/4(2:1:1(a'/ f'3/2) x/4 (2:1:1(a'/ e'3/2)x/4(2:1:1(a'/ d'3/2)!8va)!x/4(2:1:1(e'/ | %31
 a3/2)x/4(2:1:1(g'/ d'3/2)x/4(2:1:1(f'/ c'3/2) x/4 (2:1:1(e'/ b3/2)x/4(2:1:1(d'/ | %32
 a3/2)x/4(2:1:1(c'/ =g3/2)x/4(2:1:1(_c'/ _g3/2) x/4 (2:1:1b/ ^f3/2x/4(2:1:1(=a/ | %33
 (6:4:3=f3/2)xg/ (6:4:3e3/2xf/ (6:4:3d3/2x(e/ (6:4:3c3/2xA/) | %34
"_dim." (6:4:3G3/2x_A/ (6:4:3F3/2xG/ !fermata!E2 x2[Q:1/4=58]"^58"[Q:1/4=90]"^90" | %35
!mf! (4:1:8!fermata![eg]"^veloce" (!>!efd=ec_e=A (4:1:24!>!gefd=ec_eA !>!gefd=ec_eA !>!gefd=ec_eA) | %36
"_dim." (3:1:6(!tenuto!fd=ec_e=A) (3:1:6(!tenuto!fd=ec_eA)"^rit."[Q:1/4=70]"^70" (3:1:6(!tenuto!fd=ec_eA) (3:1:6(!tenuto!fd[Q:1/4=55]"^55"=ec[Q:1/4=35]"^35"_e!fermata!A) | %37
[M:12/8][Q:3/8=58]"^Meno Mosso."!mf!!>(! (!tenuto!!fermata![df]>[=Gc=e][B_e])!>)!!mf! (!tenuto![df]3-!>(! [df]>e[Bd])!>)! (!tenuto![df]!>(!e/d/[Q:1/4=52]"^52"[Ac])!>)! | %38
!mf! !tenuto![df]>([ea][df])!p! !tenuto![df]3-[Q:1/4=75]"^75" [df]2!<(! (e fgf!<)! | %39
 !tenuto!a3)!>(! !tenuto!b3!>)! !tenuto!a3- a>(a[Q:1/4=58]"^58"g[Q:1/4=66]"^66" | %40
[Q:1/4=70]"^70"!p! [df]3-) [df]2!mf![Q:1/4=80]"^80" ((e d2) c!>(! [FB]2 [=Ed])!>)! | %41
 [D_E]3- [DE]2"_dim." ([=Ec] [D_E]2) ([=D_c] [_DE]2) ([=CB] | %42
[M:9/8]!p![Q:1/4=75]"^75" E3- E)[Q:1/4=70] x2 G/"^m.g."!<(! (10:3:5(E[Q:1/4=100]"^100"FGAB"^m.d." (3:1:3c!fermata!d!fermata!e!<)! | %43
[M:12/8]!p![Q:1/4=58]"^58" !tenuto![df]>[=Gc=e][B_e]) (!tenuto![df]3- [df]>e[Bd]) (!tenuto![df]e/d/[Q:1/4=52]"^52"[Ac]) | %44
 !tenuto![df]>([ea][df]) !tenuto![df]3-[Q:1/4=78]"^78" [df]2 (e!<(! fgf!<)! | %45
[Q:1/4=75]"^75" a3/2)!mf!!tenuto!d'3/2- d'3/2!tenuto![cc']3/2- [cc']3/2!p!!tenuto![Bb]3/2- [Bb]3/2!tenuto![Aa]3/2- | %46
 [Aa]3- [Adfa]2!mf! (g fed B2 c | %47
 A2)"_dim." (d- d2 c BAG-"^poco rit."[Q:1/4=70]"^70" GA[Q:1/4=67]"^67"=A | %48
[Q:1/4=64]"^64"!p! [DF]3)[Q:1/4=60]"^60" !tenuto![Ge]3 [DF]3-!mf! [DF]2 d | %49
[Q:1/4=75]"^a tempo" z2 z z z!8va(! !tenuto!d''- d'' !tenuto!c''2 !tenuto!_c''2 b'!8va)!!mf! | %50
 !tenuto!e'2 (=d' _d'=c'_c' b) (!tenuto!e2 =d_d=c- | %51
 c_cB !tenuto!E3-) E2[Q:1/4=67]"^67" (B[Q:1/4=64]"^64""^rit.""_dim." =E2[Q:1/4=58]"^58" =A)!mf! | %52
[K:bass][Q:1/4=72]"^a tempo"!p! !>![D,F,_A,D]6[K:treble]!mf! !>![CF=Ac]6 | %53
[K:bass]!p! z[K:treble] !tenuto![DFAd]2 !tenuto![CFAc]2 !tenuto![=B,FA=B]!mf! z !tenuto![=A,CF]2!>(! !tenuto![^G,C=E]2 !tenuto![A,C_E]!>)! | %54
[M:6/8][K:bass][Q:3/8=78] z/!mf! (!tenuto![F,A,D]!tenuto![=E,A,C]!tenuto![D,F,]/) z/ (!tenuto![F,A,D]!tenuto![E,A,C]!tenuto![D,F,]/) | %55
 z/ ([F,A,C][=E,A,_C][D,F,]/) z/ ([F,A,=C][E,A,_C][D,F,]/) | %56
 z/"_dim." ([F,A,_C][=E,=G,B,][D,F,]/) z/ ([F,A,C][E,G,B,][D,F,]/) | %57
[M:9/8]!pp! z/ ([F,A,B,][=E,=G,=A,][D,F,]/) z/ ([F,_A,B,][E,G,=A,][D,F,]/)[Q:1/4=84]"^84" z3[K:treble] || %58
[K:C][M:12/8]!p! !fermata!z[Q:1/4=84]"^Poco più mosso" (a"_dim."^g =g^f=f d2 A- A3) || %59
[M:6/8][K:bass][Q:1/4=78]"^78" z/ ([G,A,D][^F,A,^C][=F,^G,]/) z/ ([=G,A,D][^F,A,C][=F,^G,]/) | %60
 z/"_dim." ([^F,A,^C][=F,_A,=C][E,=G,]/) z/ ([^F,=A,^C][=F,_A,=C][E,G,]/) || %61
[M:9/8] z/ ([F,_A,C][E,^G,B,][_E,=G,]/) z/ ([F,A,C][=E,^G,B,][_E,=G,]/)[Q:1/4=84]"^84" z2[K:treble] !fermata!z || %62
[M:12/8] !fermata!z!mf![Q:1/4=84]"^84" ([_c'_e'][_bd'] [=a_d'][_ac']!>(![=db] (!tenuto!_e3)!>)! ^d3)[Q:1/4=78] | %63
 !fermata!z!p![Q:1/4=84]"^84"!8va(! (b'^a' =a'g'!8va)!b-) b2 (^a =a"_dim."gB-) || %64
[M:6/8] B3-"^rit."[Q:1/4=66]"^66" B[Q:1/4=56]"^56"^A[Q:1/4=40]"^40"=A || %65
[M:12/8]!p![Q:1/4=70]"^a tempo""^dolce" ([Gce]>[^FB^d][A=d]) z!pp! ([gb][^f^a] [eg][^Af][GB] [^FA][E-G][EF]) | %66
!p!"_dim." ([G,CE]>[B,^D]=D) z[K:bass] [G,B,][^F,^A,] G,F,[I:staff +1]B,,-[I:staff -1] z2 z | %67
[M:6/8][K:treble][Q:1/4=78]"^a tempo" z z!mf! (e- e2 d | e ^c2-) c2 (B | %69
 !tenuto!^c) ^A2 z/ c/A/^F/ z | z/ ^c/^A/^F/ z z/ c/A/F/ z | %71
 z3/2!mf! ([Bd]/[^FA]-) [FA]/([A^c]<[EG])([GB]/ | %72
 [D^F]/[FA]<[^CE])([EG]/ [B,D]>)([DF][^A,C]/[CE]/ | %73
 [=F,B,])!p! z"_leggiero" (3(f'/e'/_e'/ (3d'/a/f/(3d/^c/=c/) (f |d) z (_af) (!tenuto!_A2 | %75
 !tenuto!F2) !tenuto!_a z2 !tenuto!g | z2 !tenuto!^f z2 !tenuto!=f | %77
 z3/2!mf! ([c_e]/[G_B]-) [GB]/([Bd]<[F_A])([Ac]/ | %78
 [_EG]/[G_B]<[DF])([F_A]/ [CE]>)([EG][=B,D]/[DF]/ | %79
 [_G,C]3/2)"_poco a poco cresc." ([^f=a]/!tenuto![=A^c=e]-) ([Ace]/[e^g]<!tenuto![^G^B^d])([df]/ | %80
 [=GA^c]/)([=d=f]<!tenuto![FA=c])([ce]/ !tenuto![EG_B]>)([Bd]!tenuto![_EFA]/)([Ac]/ | %81
 !tenuto![DF_A]3/2) ([_a_c']/!tenuto![_c_e_g]-) ([ceg]/[g_b]<!tenuto![_Bdf])([fa]/ | %82
 [=A=B^d]/)([=e=g]<!tenuto![GB=d])([d^f]/ !tenuto![^FA=c]>)([ce]!tenuto![=FGB]/)[Bd]/ | %83
 !tenuto![EG_B]3/2 ([_b_d']/!tenuto![_df_a]-) ([dfa]/[ac']<!tenuto![ceg])([gb]/ | %84
 [_B_df]/[f_a]<!tenuto![Gce])([eg]/ [Fd]>)(f[Gc]/e/) | %85
 [EGB]/!f! (!tenuto![e^c']/[^dg]/)(!tenuto![=db]/[^d^f]/)(!tenuto![=da]/ [^ce]/)(!tenuto![=cg]/[Bd]/)(!tenuto![^Af]/[=A^c]/)(!tenuto![^Ge]/ | %86
 (8:6:8[=GB]/) ([e^c']/[^dg]/[=db]/[^d^f]/[=da]/[^ce]/[=cg]/ (8:6:8[Bd]/[^Af]/[=A^c]/[^Ge]/[=GB]/[^Fd]/[EA]/[Fc]/ | %87
 [EG]/) (!tenuto![^fe']/[gb]/)(!tenuto![fd']/[ea]/)(!tenuto![f^c']/ [eg]/)(!tenuto![^db]/[=df]/)(!tenuto![^ca]/[Be]/)(!tenuto![^Ag]/ | %88
 (8:6:8[Bd]/) ([^fe']/[gb]/[fd']/[ea]/[f^c']/[eg]/[^db]/ (8:6:8[=df]/[^ca]/[Be]/[^Ag]/[Bd]/[Af]/[=Ac]/[^Ge]/ | %89
 (4:3:4[=GB]) !tenuto![gbd'g']!tenuto![^fa^c'^f']!tenuto![egbe'] (4:3:4!tenuto![dfbd']!tenuto![^ceac']!tenuto![Bdgb]!tenuto![Acfa] | %90
 (4:3:4!tenuto![GBeg] !tenuto![gbd'g']!tenuto![^fa^c'^f']!tenuto![egbe'] (4:3:4!tenuto![d=fad']!tenuto![=ceg=c']!tenuto![Bdfb]!tenuto![Adfa] | %91
!ff! (4:3:4[Gc_eg]"_pesante" [g'_b'][f'a'][_e'g'] [d'f'][c'e'][_bd'] | %92
 (4:3:4[gc'][g_b][fa][_eg] (4:3:4[FBdf][_EGce][DG_Bd][CEGc] | %93
 (4:3:4[_B,_EG_B] [g'_b'][f'a'][_e'g'] [d'f'][c'e'][_bd'] | %94
 (4:3:4[gc'][g_b][fa][_eg] (4:3:4[FBdf][_EGce][DG_Bd][CEGc] | %95
[Q:1/4=90]"^90" [_B,_EG_B]"^rit."[^FA][EG][Q:1/4=80]"^80" [^C=F][Q:1/4=78]"^78"[B,E][K:bass][Q:1/4=76]"^76"[G,D] | %96
[Q:1/4=74]"^74" [^F,^C][Q:1/4=70]"^70"[_E,A,][Q:1/4=64]"^64"[^C,G,] !>!!fermata![=C,=F,]!>!!fermata![_B,,E,]!>!!fermata![A,,^C,] || %97
[K:Db][M:4/4][K:treble][Q:3/8=90]"^Tempo I" !fermata!z!ff! !tenuto![B,DF]2 !tenuto![Bdf] !>![ad'f'a']4 | %98
 !fermata!z3/4 !>!!fermata![fbf']/4!>![dbd'] (6:4:6z/!f! (B/d/f/G/B/) (6:4:6d/(F/B/f/G/!>(!B/ (3d/F/!>)!B/) (3z/ z/[K:bass] [F,_D]/- | %99
!p! (6:4:4[F,D][F,DF]/-[F,DF][F,C]/- (6:4:4[F,C][F,CF]/-"_cresc."[F,CF][F,B,]/- (6:4:4[F,B,][F,B,F]/-[F,B,F][F,=A,]/- (6:4:4[F,A,][F,A,F]/-[F,A,F]!>![_A,,_A,]/- | %100
!ff! z[K:treble] !tenuto![B,=DF]2 !tenuto![B=df] !>![_c'_f'a'_c'']4 | %101
 !fermata!z3/4 !>!!fermata![fbf']/4!>![=db=d'] (6:4:6!fermata!z/!f! (B/d/f/G/B/) (6:4:6d/(F/B/f/G/B/!>(! (3d/F/B/)!>)! (3z/ z/ [A,=DA]/- | %102
!p! (6:4:4[A,DA][_C=DA_c]/-[CDAc][=G,D=G]/- (6:4:4[G,DG]"_cresc."[B,DGB]/-[B,DGB][_G,D_G]/- (6:4:4[G,DG][=A,-D-G=A-]/[A,DGA][F,-DF-]/ (6:4:4[F,DF][_A,-D-F_A-]/[A,DFA][K:bass]!>![=D,=D]/- | %103
!ff! [D,D]4[K:treble] !>![^c'^f'^a'^c'']4 | %104
 !fermata!z3/4 !fermata![=A=d=a]/4[^Fd^f] (6:4:6z/[Q:1/4=74]"^74"!f!"^rit. e dim." (=D/[Q:1/4=89]"^89"F/A/_B,/[Q:1/4=86]"^86"D/!>(! (6:4:6F/)(=A,/[Q:1/4=83]"^83"D/A/!>)!B,/[Q:1/4=80]"^80"D/[Q:1/4=77]"^77" (6:4:5F/A,/D/)[Q:1/4=70]"^70"z[Q:1/4=66]"^66"(A/ | %105
[Q:1/4=76]"^a tempo"!p! (6:4:4_d)_G/=A,(c/ (6:4:4=A)F/A,(c/ (6:4:4_A)=E/B,(c/ (6:4:4=A)F/A,(f/ | %106
"_cresc." (6:4:4d)G/=A,(c/ (6:4:4=A)F/A,(c/ (6:4:4_A)=E/B,(c/ (6:4:4=A)F/A,(B/ | %107
!mf! (6:4:3d3/2)x(=A/ (6:4:3c3/2)x(d/"_dim." (6:4:3f3/2)x(c/ (6:4:3e3/2)x(f/ | %108
 (3a3/2)x(e/ (3g3/2)x(g/!pp! (3:2:4!tenuto!b3/2)x/(=f/ x/ (3:2:4!tenuto!b3/2)x/e/ x/ | %109
!mf! !tenuto!g x (6:4:6d/F/d/z/(c/e/ (6:4:6c/E/c/)z/(B/d/ (6:4:6B/D/B/)z/(=A/c/ | %110
 (6:4:5=A/C/A/)z(_c/ (6:4:5!tenuto!_A/_C/)z/z(B/"^rit."[Q:1/4=73]"^73" (6:4:5!tenuto!G/B,/)z/[Q:1/4=69]"^69"z[Q:1/4=57]"^57"(A/ (3!tenuto!F/A,/)[Q:1/4=50]"^50" z/ z[Q:1/4=38]"^38" || %111
[M:9/8]!mf![Q:1/4=58]"^Meno mosso"!>(! (!tenuto![DB]>[C=A][_C_A])!>)!!p! !tenuto!B3- B/[Q:1/4=92]"^92"(D/E/F/G/A/[Q:1/4=250]"^250""^m.g." x x2 x[Q:1/4=300]"^300""^m.d." fga) | %112
[M:12/8]!p![Q:1/4=58]"^a tempo" (!tenuto![gb]>[cf=a][e_a]) (!tenuto![gb]3- [gb]>[fa][eg]) !tenuto![gb]([fa]/[eg]/!fermata![df]) | %113
 !tenuto![gb]>([ad'][gb]) !tenuto![gb]3- [gb]2[Q:1/4=74]"^74"!<(! (a b_c'b!<)! | %114
 d'3/2)!mf!!tenuto!g'3/2- g'3/2!tenuto![ff']3/2- [ff']3/2!tenuto![ee']3/2- [ee']3/2!tenuto![dd']3/2- | %115
 [dd']3- [dgbd']2!mf! (_c' bag!>(! e_cd!>)! | %116
 B3/2)!mf!!tenuto!e'3/2- e'3/2!tenuto![=d=d']3/2- [dd']3/2!tenuto![cc']3/2- [cc']3/2!mp!"_dim."!tenuto![Bb]3/2- | %117
 [Bb]3- [Begb]2!mf! (a =gfe!>(! cB=G!>)! | %118
 [=G,B,C]2)!mf! (!tenuto!b' !tenuto!=a'!tenuto!_a'!tenuto!=g' c'2) (=b _b=gc | %119
 =G) !tenuto!b'!tenuto!=a' _a'=g'c'- c'(=b_b =g!>(!cB)!>)!!mf! | %120
 [_B,C]2"^cantabile" (b =a_a=g c2) (g _gf=e!p! | B2-) (e =d_dc _G2) (!tenuto!_c !tenuto!B2 =A | %122
!p!"_dim." !tenuto!_G2) (B =A2 _A E2) (=A"^rit."[Q:1/4=67]"^67" _A[Q:1/4=60]"^60"=G!fermata!_G) | %123
!pp![Q:1/4=64]"^Meno mosso" z"^pesante" !tenuto![_G,B,=DF]2 !tenuto![=G,B,DF]2 !tenuto![A,B,DF]!mf! z !tenuto![D=EB=d]2 !tenuto![D=FBd]2 !tenuto![D^FBd] | %124
!p! z !tenuto![=F_c_d=f]2 !tenuto![F=cdf]2 !tenuto![Fdf]!mf! z !tenuto!!fermata![debd']2!>(! !tenuto!!fermata![d=ebd']2 !tenuto!!fermata![dfbd']!>)! || %125
[M:6/8][K:bass][Q:1/4=70]"^poco accelerando"!p! z!<(! (3(B,/D,/F,/(3B,/C,/[Q:1/4=72]"^72"=E,/!<)!!>(! (3B,/_C,/[Q:1/4=74]"^74"_E,/(3B,/=C,/=E,/(3B,/[Q:1/4=76]"^76"D,/F,/)!>)! | %126
 z!<(! (3(B,/C,/=E,/[Q:1/4=78]"^78"(3B,/_C,/_E,/!<)!!>(! (3B,/[Q:1/4=80]"^80"B,,/=D,/(3B,/[Q:1/4=82]"^82"C,/E,/[Q:1/4=84]"^84"(3B,/=C,/=E,/)!>)! | %127
[Q:1/4=86]"^a tempo" (3z/!<(! (C,/=E,/(3B,/D,/F,/ (3_C/=D,/_G,/!<)!!>(!(3B,/_D,/F,/ (3=A,/C,/E,/(3_A,/!>)!_C,/_E,/) | %128
!<(! (3(=A,/=C,/=E,/(3B,/D,/F,/!<)! (3_C/=D,/G,/!>(!(3B,/_D,/F,/ (3A,/C,/E,/(3_A,/!>)!_C,/_E,/) | %129
!mp! (3(=A,/E,/=D,/(3_D,/F,/B,/) (3(=B,/=D,/_D,/(3=C,/_G,/B,/) (3(C/_A,/G,/(3F,/B,/D/) | %130
[K:treble] (3(E/B,/A,/(3=G,/B,/E/) (3(=E/D/=A,/(3_A,/=D/F/) (3(G/_D/C/(3_C/_E/=G/) | %131
{/!fermata!x} (3(!fermata!A/E/D/(3=C/E/A/) (3(=A/^F/=D/(3_D/=G/A/) (3(B/_G/_F/(3E/=G/!fermata!=B/) | %132
{/!fermata!x} (3(!fermata!c/_A/!courtesy!_G/(3F/=A/d/) (3(=d/_G/_F/"_dim."(3E/=B/e/) (3(=e/_B/=D/"_m.g."(3_D/=A/f/) | %133
 (3(=e/c/_c/!p!(3B/d/f/) (3(e/=c/_c/(3B/d/f/) (3(e/=c/_c/(3B/d/f/) | %134
 (3(=e/c/_c/(3B/d/f/) (3(e/=c/_c/(3B/d/f/) (3(e/=c/=A/(3B/d/f/) | %135
"_perdendo" (3(=a/=e/c/[Q:1/4=82]"^82"(3d/f/[Q:1/4=78]"^78"b/) (3(c'/[Q:1/4=74]"^74"a/e/[Q:1/4=72]"^72"(3f/b/[Q:1/4=68]"^68"d'/) (3(=e'/[Q:1/4=64]"^64"c'/a/[Q:1/4=54]"^54"(3b/!fermata!d'/!fermata!f'/) || %136
[M:9/8]"^m.g."[Q:1/4=20]"^20" b' z z!mf!"^m.g."[Q:1/4=58]"^Meno mosso" ([df]3-!>(! [df]"^m.d."!tenuto![c=e][Q:1/4=34]"^34"!tenuto![_c_e])!>)![Q:1/4=50]"^50"[Q:1/4=70]"^70"[Q:1/4=50]"^50"[Q:1/4=40]"^40"[Q:1/4=24]"^24" | %137
!p!"^m.g."[Q:1/4=58]"^58" (!arpeggio![Bd]3- [Bd]2"^m.d."!>(! B !fermata!F3)!>)! || %138
V:2
"^m.d."!ped! (10:2:10(FED"^veloce"B,"^m.g." F,D,B,,F,,"^m.d." E,,D,,!ped-up! | %1
!ped! z3/2) !>![F,B,DF]/ !>![F,B,DF]2!ped!!ped-up!!ped! z4!ped-up!!ped!!ped-up!!ped!!ped-up!!ped!!ped-up! | %2
[M:2/4] z (!tenuto!F!tenuto!=E!tenuto!_E) |[M:4/4]!f! D>B, F,2- F,!mf! (=E,2 _E,) | %4
 (6:4:6([F,,D,]/B,,,/)z/([D,F,]/F,,/) z/ (6:4:6([F,,C,]/B,,,/)z/([C,F,]/F,,/) z/ (6:4:6([F,,B,,]/B,,,/)z/([B,,F,]/F,,/) z/ (6:4:6([F,,A,,]/B,,,/)z/([A,,F,]/F,,/) z/ | %5
!ped! (6:4:5!fermata!z/ z/ !fermata![G,B,DF]/[G,B,DF][G,B,DF]/ (6:4:4!fermata![G,B,DF]/[G,B,DF][G,B,DF]/ z z4!ped-up! | %6
[M:2/4] z (!tenuto!F!tenuto!=E!tenuto!_E |[M:4/4] D>B, F,2-) F,!mp!(F,=E,_E,) | %8
 (6:4:6([G,,D,]/B,,,/)z/([D,F,]/G,,/) z/ (6:4:6([G,,C,]/B,,,/)z/([C,F,]/G,,/) z/ (6:4:6([G,,B,,]/B,,,/)z/([B,,F,]/G,,/) z/ (6:4:6([G,,=A,,]/B,,,/)z/([A,,F,]/G,,/) z/ | %9
!ped! (6:4:5!fermata!z/ z/ !fermata![F,A,B,=DF]/[F,A,B,DF][F,A,B,DF]/ (6:4:4!fermata![F,A,B,DF]/[F,A,B,DF][F,A,B,DF]/ z!ped-up! z !tenuto!F!tenuto!=E!tenuto!_E | %10
 =D3 ([B,,,F,,]/B,,/!mf! =D,/F,/-A,/-=D/- D/[K:treble]F/-_c/B/) | %11
 !fermata![^C=A][K:bass] (^F,,/^C,/=A,/^C/ =A) z (=G,,/=F,/ _D/=C/F,/=A,,/ | %12
!p! B,,/) (G,/!<(!G/G,/) (=A,,/!<)!!>(!F,/F/!>)!F,/) B,,/ (G,/!<(!G/G,/)!<)! (_A,,/!>(!F,/F/!>)!F,/) | %13
 =A,,/ (F,/!<(!F/F,/)!<)! (^G,,/!>(!=E,/=E/!>)!E,/) A,,/ (E,/!<(!E/E,/)!<)!!>(! (^F,,/^D,/^D/!>)!D,/) | %14
!p! (6:4:4(_E,,_D,/_D=C,/) (6:4:4(=F,,D,/DC,/) (6:4:4(G,,D,/DC,/) (6:4:4(F,,D,/DC,/) | %15
 (6:4:4(E,,D,/DC,/) (6:4:4(F,,D,/DC,/) (6:4:4(G,,D,/DC,/) (6:4:4(F,,D,/DC,/) | %16
 (6:4:4(E,,D,/B,C,/) (6:4:4(F,,D,/=A,C,/) (6:4:4(=G,,F,/DE,/) (6:4:4(A,,F,/CG,/) | %17
[M:2/4] (6:4:4(B,,A,/FG,/) (6:4:4(C,A,/EB,/-) | %18
!ped! (3[=D,B,]/[D,B,]/[I:staff -1][GBg]/[I:staff +1] (3[A,B,A]/[A,B,A]/[I:staff -1][GBg]/!ped-up!!ped![I:staff +1] (3[B,,A,]/[B,,A,]/[I:staff -1][FBf]/[I:staff +1] (3[A,B,A]/[A,B,A]/[I:staff -1][FBf]/!ped-up! | %19
!ped![I:staff +1] (3[G,,D,]/[G,,D,]/[I:staff -1][_FB_f]/[I:staff +1] (3[B,DA]/[B,DA]/[I:staff -1][EBe]/!ped-up!!ped![I:staff +1] (3[=G,,E,]/[G,,E,]/[I:staff -1][=DB=d]/[I:staff +1] (3[=E,B,=E]/[E,B,E]/!ped-up![I:staff -1][_DB_d]/ | %20
!ped![I:staff +1] (3[A,,F,]/[A,,F,]/[I:staff -1][DAd]/[I:staff +1] (3[F,A,F]/[F,A,F]/[I:staff -1][CAc]/!ped-up!!ped![I:staff +1] (3[=A,,,=A,,]/[A,,,A,,]/[I:staff -1][_CG_c]/[I:staff +1] (3[E,G,E]/[E,G,E]/!ped-up![I:staff -1][B,GB]/ | %21
!ped![I:staff +1] (3[B,,,,B,,,]/[B,,,,B,,,]/[I:staff -1][B,FB]/[I:staff +1] (3[D,F,D]/[D,F,D]/[I:staff -1][_CA_c]/!ped-up!!ped![I:staff +1] (3[D,,,D,,]/[D,,,D,,]/[I:staff -1][CFc]/[I:staff +1] (3[F,A,=D]/[F,A,D]/!ped-up![I:staff -1][=CGB]/ | %22
!ped![I:staff +1] (3[E,,,E,,]/[E,,,E,,]/[I:staff -1][CGBc]/[I:staff +1] (3[G,B,E]/[G,B,E]/[I:staff -1][D=Ad]/!ped-up!!ped![I:staff +1] (3[F,,,F,,]/[F,,,F,,]/[I:staff -1][DAd]/[I:staff +1] (3[F,A,EF]/[F,A,EF]/!ped-up! z/ | %23
[M:4/4]"^m.d."!ped! z [F,,B,,D,F,]- [F,,B,,D,F,]/[F,,B,,D,F,][F,,B,,D,F,]/!ped-up!!ped! z [F,B,DF]- [F,B,DF]/[F,B,DF][F,B,DF]/ | %24
"^m.d."!ped! (3z/ z/ (F,/(3:2:2[DF])(F,/ (3:2:2[C=EF])(F,/(3:2:2[_C_EF])(F,/ [B,DF]) (3(F,/E,/=D,/ (3_D,/B,,/F,,/) z!ped-up! | %25
"^m.d."!ped! z [F,,B,,D,F,]- [F,,B,,D,F,]/[F,,B,,D,F,][F,,B,,D,F,]/!ped-up!!ped! z [F,B,DF]- [F,B,DF]/[F,B,DF][F,B,DF]/ | %26
"^m.d."!ped! (3z/ z/ (F,/(3:2:2[DF])(F,/ (3:2:2[C=EF])(F,/(3:2:2[_C_EF])(F,/ [B,DF]) (3(F,/E,/=D,/ (3_D,/B,,/F,,/) z!ped-up! | %27
!ped! (3:2:2[G,,,G,,](D,/!ped-up!!ped!(3:2:2B,)(E,/!ped-up!!ped! (3:2:2C)(F,/!ped-up!!ped!(3:2:2D)(A,,/!ped-up!!ped! (3:2:2G,)(E,/!ped-up!!ped!(3:2:2C)(F,/!ped-up!!ped! (3:2:2D)(G,/!ped-up!!ped!(3:2:2E)(B,,/ | %28
!ped! (3:2:2A,)(F,/!ped-up!!ped!(3:2:2D)(G,/!ped-up!!ped! (3:2:2E)(A,/!ped-up!!ped!(3:2:2F)(C,/!ped-up!!ped! (3:2:2B,)(C/!ped-up!!ped!(3:2:2A)([E,D]/!ped-up!!ped! (3:2:2B)[K:treble](E/!ped-up!!ped!(3:2:2c)[F,C]/!ped-up! | %29
!ped! x7/4!ped-up![K:treble-8]!p!!8va(! (2:1:1(f/!ped! !courtesy!_g3/2) x/4 (2:1:1e/!ped! f3/2x/4(2:1:1(d/!ped-up!!ped! e3/2)x/4(2:1:1(f/!ped-up! | %30
!ped! B3/2)x/4(2:1:1(e/!ped-up!!ped! f3/2)x/4(2:1:1(d/!ped-up!!ped! e3/2)x/4(2:1:1(c/!ped-up!!ped! !courtesy!_d3/2)!8va)!x/4[K:treble](2:1:1(E/!ped-up! | %31
!ped! A,3/2)x/4(2:1:1(C/!ped-up!!ped! D3/2)x/4(2:1:1(B,/!ped-up!!ped! C3/2)x/4(2:1:1(A,/!ped-up!!ped! B,3/2)x/4[K:bass](2:1:1(G,/!ped-up! | %32
!ped! A,3/2)x/4(2:1:1(^F,/!ped-up!!ped! =G,3/2)x/4(2:1:1(=F,/!ped-up!!ped! _G,3/2)x/4(2:1:1^C,/!ped-up!!ped! =D,3/2x/4(2:1:1F,,/-!ped-up! | %33
!p! (3([F,,E,]/=A,/[K:treble]C/(3E/=A/B/[I:staff -1] (3e/)c/_A/[I:staff +1](3=A/E/C/[I:staff -1] (3d/_B/_G/[I:staff +1](3=G/D/B,/[I:staff -1] (3c/=A/F/[I:staff +1](3_G/C/=A,/ | %34
[K:bass][I:staff -1] (3G/E/B,/[I:staff +1](3_C/E,/F,,/[I:staff -1] (3F/D/=A,/[I:staff +1](3B,/E,/F,,/[I:staff -1] (3E/=C/!fermata!_A,/[I:staff +1](3=A,/E,/!fermata!F,,/"_m.d." (4:1:8!fermata!F,,, (E,G,A,!<(![I:staff -1]CE=Ac)!<)! | %35
[I:staff +1] z8 | z2[K:treble] (!tenuto!F4- (3F=E_E) | %37
[M:12/8]!p! (!tenuto![DFA]>[C=E][B,_E_G]) (!tenuto![DFA]3- [DFA]>C[B,DF]) (!tenuto![DFA]C/B,/[A,CF]) | %38
 !tenuto![DFA]>([CGB][DFA]) !tenuto![DFA]3- [DFA]2 z z2 z | %39
[K:bass] z/!pp! (A/=G/_G/F/A,/- A,/)(=G,/_G,/F,/A,,/D,,/-) D,,/(A,,/F,/G,/=G,/A,/)[K:treble] (F/G/=G/[I:staff -1]A/B/c/) | %40
[I:staff +1] [DFA]3- [DFA]2 z z2 z[K:bass]!p! B,3 | %41
 [A,,E,_G,]3- [A,,E,G,]2 ([=G,B,] [A,,E,_G,]2) ([F,_A,] [A,,E,G,]2) ([=E,=G,] | %42
[M:9/8] [A,,_E,_G,]3- [A,,E,G,]) z z z2 z | %43
[M:12/8][K:treble]!p! (!tenuto![DFA]>[C=E][B,_E_G]) (!tenuto![DFA]3- [DFA]>C[B,DF]) (!tenuto![DFA]C/B,/[A,CF]) | %44
 !tenuto![DFA]>([CGB][DFA]) !tenuto![DFA]3- [DFA]2 z z2 z | %45
[K:bass] z3/2!mf! ([D,,A,,]/(3A,/E/=E/ [DF]3/2) ([D,,A,,]/(3=G,/D/_E/ [CF]3/2)!p! ([D,,A,,]/(3_G,/C/E/ [B,DF]3/2) ([D,,A,,]/(3F,/B,/E/ | %46
 [A,DF]3-) [A,DF]2 z z2 z (B,2 __B,) | A,6 G,6 | [B,,F,]3 !tenuto![CE=A]3 [B,,F,]3- [B,,F,]2 z | %49
!p!!ped! D,/G,,/z/(D,/B,/E/ !tenuto!B>)(EB,/D,/ G,,>)!ped-up!!ped!(D,B,/E/ !tenuto!B>)(EB,/D,/!ped-up! | %50
!ped! (G,,>)D,B,- B,/[K:treble]E<BE/!ped-up!!ped! B,2) z z!ped-up![K:bass]!ped! (E/B,/D,-) | %51
 D,>(G,,D,/B,/!ped-up!!ped! !tenuto!B>)(EB,/D,/ (G,,>)D,B,-!ped-up! B,=A,/D,/G,,) | %52
!8vb(!!ped! !>![D,,,A,,,D,,]6!8vb)!!ped-up!!ped! !>![C,,F,,=A,,C,]6!ped-up! | %53
!8vb(!!ped! !>![D,,,A,,,D,,]6!8vb)!!ped-up!!ped! !>![C,F,=A,C]6!ped-up! | %54
[M:6/8] (!tenuto![D,,,D,,]2 C,) (D,,2 C,) | (D,,2 _C,) (D,,2 C,) | (D,,2 B,,) (D,,2 B,,) | %57
[M:9/8] (D,,2 =A,,) (D,,2 A,,)[K:treble]!mf! !tenuto!=A!tenuto!^G[I:staff -1]!tenuto!=G || %58
[K:C][M:12/8][I:staff +1][K:bass]!ped! !arpeggio!!tenuto![D,A,F]2 (D!ped-up!!p! !tenuto!A,6) (!tenuto!^G,2 =G,) || %59
[M:6/8]!p! (D,,2 ^C,) (D,,2 C,) | (D,,2 =C,) (D,,2 C,) || %61
[M:9/8] (D,,2 B,,) (D,,2 B,,)[K:treble]!mf! !tenuto!B!tenuto!^A[I:staff -1]!tenuto!=A || %62
[M:12/8]!ped![I:staff +1] (!arpeggio!!tenuto![_E,_C_E_A]2!>(! E!ped-up!!>)! C2)[K:bass] x4[K:treble] B!tenuto!^A!tenuto!=A | %63
[K:bass]!p!!ped! !arpeggio![=E,,B,,=E,]2"^m.g."[I:staff -1] E!ped-up![I:staff +1] !tenuto!B,6 z (B,,E,-) || %64
[M:6/8] E,(^A,B,- ^CD^D) ||[M:12/8]!p! ([=CE]>[B,^D][A,=D=F]) [CE]6 E,B,^A, | %66
!p! ([C,E,]>[B,,^F,][A,,=F,]) z C,,G,, B,,^A,,G,, B,, !fermata!A,,2 | %67
[M:6/8]!pp! ^F,,,(^F,,/E,/^A,/B,/ ^B,/^C/A,/E/)z/^F/ | %68
 z/ (^F/E/^A,/)z/(G,/ ^C,/^F,,/) z/ (D,/B,/[I:staff -1]D/) | %69
[I:staff +1] (^D/E/^C/^F,/) G/E/ x2 G/D/ | x2 G/=D/ x2 G/^C/ | %71
 z/!mp! (^F,,/D,/B,/) z/ (D,/B,/D/) z/ (B,/D,/F,,/- | %72
 F,,/D,/) (^A,/D,/^F,,/D,/) (=A,/D,/F,,/D,/) (G,/D,/) | %73
 (3(G,,/D,/F,/(3B,/[K:treble]D/E/(3F/G/^G/) [FA]-[FA]/!p!(F/D- | %74
 D)[K:bass] z/ (_A/F/_E/) z/ (D/B,/_A,/=E,/_E,/ | D,/!p!!<(!G,,/)z/D,/!<)!B,/D/ !tenuto!G^F x | %76
 !tenuto!_AG z !tenuto!=A_A z |!mp! (G,,/_E,/G,/C/) z/ (_E/C/E,/) z/ (C/E,/G,,/- | %78
 G,,/_E,/) (B,/E,/G,,/E,/) (_B,/E,/G,,/E,/) (_A,/E,/) | %79
 (_A,,,/_A,,/[_E,_G,]/C/) (!tenuto![^F,=A,^C]/=E,^G,,/) (!tenuto![^G,^B,^D]/F,G,,/) | %80
 (!tenuto![A,^CE]/=G,/) (!tenuto![F,A,]/A,,/)(A,,/A,,,/) !tenuto![G,_B,](A,,/G,/!tenuto![F,=C]/A,,/) | %81
 (_B,,,/_B,,/[F,_A,]/D/) (!tenuto![A,_C_E]/_G,B,,/) (!tenuto![_B,DF]/A,B,,/) | %82
 (!tenuto![=B,^D^F]/A,/) (!tenuto![G,B,]/B,,/)(B,,/B,,,/) !tenuto![A,C](B,,/A,/!tenuto![G,=D]/B,,/) | %83
 (C,,/C,/[G,_B,]/E/) (!tenuto![B,_DF]/_A,C,/) (!tenuto![CEG]/B,C,/) | %84
 (!tenuto![_DF_A]/_B,/) (!tenuto![CE_B]/G,/B,/C,/)[K:treble] (!tenuto![_D=B]/_A,/=B,/C,/) ([CE_B]/!mf!G,/) | %85
[K:bass]!ped! [E,,,E,,]([E,,B,,]/E,/)!ped-up!!ped!!tenuto![B,,E,B,]- [B,,E,B,]!ped-up![K:treble]!ped! !tenuto![B,EB]2!ped-up! | %86
[K:bass]!ped! (4:6:3[B,,E,B,]/[E,,B,,E,]!ped-up!!ped![E,,,B,,,E,,]/- (4:6:4[E,,,B,,,E,,]/([E,,B,,]/4E,/4)!ped-up!!ped![B,,E,B,]!ped-up! | %87
!ped! !>![G,,,D,,G,,]([G,,D,]/G,/)!ped-up!!ped!!tenuto![D,G,D]- [D,G,D]!ped-up![K:treble]!ped! !tenuto![DGd]2!ped-up! | %88
[K:bass]!ped! (4:6:3[D,G,D]/[G,,D,G,]!ped-up!!ped![G,,,D,,G,,]/- (4:6:4[G,,,D,,G,,]/[G,,D,]/4G,/4!ped-up!!ped![D,G,D]!ped-up! | %89
!ff!!ped! !tenuto![B,,,E,,B,,]2!ped-up! [E,B,E]!ped! !tenuto![D,,G,,D,]2!ped-up! [G,DG] | %90
!ped! !tenuto![B,,,E,,B,,]2!ped-up! [E,B,E]!ped! !tenuto![D,,G,,D,]2!ped-up! [G,DG] | %91
!ped! !tenuto![C,,G,,C,]2!ped-up!!ped! [G,CG]!ped-up!!ped! !tenuto![G,,,C,,G,,]2!ped-up!!ped! [_B,,_E,_B,]!ped-up! | %92
!ped! !tenuto![_E,,_B,,_E,]2!ped-up!!ped! [C,G,C]!ped-up!!ped! !tenuto![G,,,C,,G,,]2!ped-up!!ped! [E,,B,,E,]!ped-up! | %93
!ped! !tenuto![C,,,G,,,C,,]2!ped-up!!ped! [G,CG]!ped-up!!ped! !tenuto![G,,,C,,G,,]2!ped-up!!ped! [_B,,_E,_B,]!ped-up! | %94
!ped! !tenuto![_E,,_B,,_E,]2!ped-up!!ped! [C,G,C]!ped-up!!ped! !tenuto![G,,,C,,G,,]2!ped-up!!ped! [E,,B,,E,]-!ped-up! | %95
 [E,,B,,E,][^F,A,][_E,G,] [^C,=F,][_B,,E,][G,,D,] | %96
 [^F,,^C,][_E,,A,,][^C,,G,,] !>![=C,,=F,,]!>![_B,,,E,,]!>![A,,,^C,,] || %97
[K:Db][M:4/4]"^m.d."!ped! !>![B,,B,]4!ped-up![K:treble]!ped! !>![A,DFA]4[K:bass]!ped-up! | %98
"^m.d." z3/4 x/4 (!tenuto!F!tenuto!=E!tenuto!_E) (!tenuto!D>B,!>(! F,/=E,/_E,/=D,/)!>)! | %99
 (6:4:6([F,,_D,]/B,,,/)z/([D,F,]/F,,/) z/ (6:4:6([F,,C,]/B,,,/)z/([C,F,]/F,,/) z/ (6:4:6([F,,B,,]/B,,,/)z/([B,,F,]/F,,/) z/ (6:4:6([F,,=A,,]/B,,,/)z/([A,,F,]/F,,/) z/ | %100
!ped! !>![B,,,,B,,,]4!ped-up![K:treble]!ped! !>![_C_FA_c]4[K:bass]!ped-up! | %101
"^m.d." z3/4 x/4 (!tenuto!F!tenuto!=E(!tenuto!_E) !tenuto!=D>B, F,/=E,/_E,/=D,/) | %102
 (6:4:6([A,,=D,]/B,,,/)z/([D,A,]/A,,/) z/ (6:4:6([=G,,D,]/B,,,/)z/([D,=G,]/=G,,/) z/ (6:4:6([_G,,D,]/B,,,/)z/([D,_G,]/G,,/) z/ (6:4:6([F,,D,]/B,,,/)z/([D,F,]/F,,/) z/ | %103
!ped! !>![=D,,,=D,,]4!ped-up![K:treble]!ped! !>![^C^F^A^c]4[K:bass]!ped-up! | %104
"^m.d." z3/4 x/4 (!tenuto!=A,!tenuto!^G,(!tenuto!=G,) !tenuto!^F,>=D, =A,,/^G,,/=G,,/^F,,/) | %105
!p! (6:4:4(_E,,_D,/D=C,/) (6:4:4(=F,,D,/DC,/) (6:4:4(G,,D,/DC,/) (6:4:4(F,,D,/DC,/) | %106
 (6:4:4(E,,D,/DC,/) (6:4:4(F,,D,/DC,/) (6:4:4(G,,D,/DC,/) (6:4:4(F,,D,/DC,/) | %107
!mf! (6:4:4(E,,D,/B,C,/) (6:4:4(F,,D,/=A,C,/) (6:4:4(=G,,F,/DE,/) (6:4:4(A,,F,/CG,/) | %108
 (6:4:4(B,,A,/FG,/) (6:4:4(C,A,/EB,/) (6:4:4(=D,B,/A_C/) (6:4:4(E,=C/BD/) | %109
!mf! (6:4:6(F,,/=A,/[K:treble]E/G/A/=A/) (6:4:6z/ (_A,/D/F/G/_A/) (6:4:6z/ (=G,/C/E/=E/F/) (6:4:6z/ (_G,/B,/D/_E/=E/) | %110
[K:bass] (6:4:6z/ (F,/=A,/D/=D/E/) (6:4:6z/ (F,,/D,/_C/=C/_D/)[K:treble] (6:4:6z/ (D/G/=A/B/_c/) (6:4:6z/ (B/=d/a/=a/!fermata!b/) || %111
[M:9/8][K:bass]!p! (_D,>=D,E,) _D,6 x2 x2 x2 x | %112
[M:12/8][K:treble]!p! (!tenuto![GBd]>[F=A][E_A_c]) (!tenuto![GBd]3- [GBd]>D[EGB]) !tenuto![GBd](B,/_C/[DFB]) | %113
 !tenuto![GBd]>([E_ce][GBd]) !tenuto![GBd]3- [GBd]2 z z2 z | %114
[K:bass] z3/2!mp! ([G,,D,]/(3D/A/=A/ !tenuto![GB]3/2) ([G,,D,]/(3=C/G/_A/ !tenuto![FB]3/2) ([G,,D,]/(3_C/F/A/ !tenuto![EGB]3/2) ([G,,D,]/(3B,/E/A/ | %115
 !tenuto![DGB]3-) [DGB]2 z z2 z ((E2 _C) | %116
!ped! [=G,B,]>)([E,,B,,](3B,/!ped-up!F/^F/ !tenuto![E=G]3/2) ([E,,B,,]/(3=A,/E/=F/ !tenuto![=DG]3/2) ([E,,B,,]/(3_A,/D/F/ !tenuto![CEG]3/2) ([E,,B,,]/(3G,/C/F/ | %117
 !tenuto![B,E=G]3-) [B,EG]2 z z2 z E=D_D | %118
!p!!p! (E,,/C,/B,/C/=G-) G/(C/B,/C,/E,,-) E,,/(C,/B,/C/G-) G/(C/!>(!_B,/C,/=E,,-)!>)! | %119
 (E,,/C,/=G,/C/B-) B/(C/G,/C,/=E,,-) E,,/(C,/G,/C/B) z/ (C/G,/C,/E,,) | %120
 (F,,,/!p!F,,/C,/B,/C) z/ (C/B,/C,/)z/(C,/ F,,/C,/C,/B,/!tenuto!C-) C/(C/B,/C,/)z/C,/ | %121
 (F,,/C,/C,/B,/!tenuto!C-) C/(C/B,/C,/)z/C,/ (F,,,/F,,/E,/_G,/!tenuto!E-) E/(G,/E,/F,,/)z/F,,/ | %122
 (F,,,/!p!F,,/E,/G,/!tenuto!=D-) D/(G,/E,/F,,/)z/F,,/ (F,,,/F,,/E,/G,/!tenuto!_D) z/ (G,/E,/-F,,/[E,=A,]) | %123
"^m.d."!ped! z !tenuto![_G,,B,,=D,F,]2 !tenuto![=G,,B,,D,F,]2 !tenuto![A,,B,,D,F,]!ped-up!!ped! z !tenuto![D,=E,B,]2 !tenuto![D,=F,B,]2 !tenuto![D,^F,B,]!ped-up! | %124
"^m.d."!ped! z !tenuto![F,_C_D]2 !tenuto![F,=CD]2 !tenuto![F,D]!ped-up!!ped! z[K:treble] !tenuto![DEB]2 !tenuto![D=EB]2 !tenuto![DFB]!ped-up! || %125
[M:6/8][K:bass] ([B,,,B,,]2 [=A,,,=A,,] [G,,,G,,]2 [=F,,,=F,,]) | %126
 ([B,,,B,,]2 [=A,,,=A,,] [F,,,F,,]2 [_G,,,_G,,]) | %127
 [B,,,B,,]2 ([=A,,,=A,,] [=E,,,=E,,]2) ([F,,,F,,] | %128
 [B,,,B,,]2) ([=A,,,=A,,] [=E,,,=E,,]2) [F,,,F,,] |!mf! (G,,F,,=E,, _E,,=D,,_D,,) | %130
"^cresc." (D,C,_C, B,,=A,,_A,,) |{/x} (G,F,=E, _E,=D,_D,) | %132
!mf!{/x} (!arpeggio!B,=A,_A,!mf! =G,_G,F,- | z)[K:treble]!p! (b=a_a) (=A!stemless!_A | %134
 !stemless!=G)[K:bass] (A,=G,_G,) (=G,,_G,, | [B,,,F,,]6) || %136
[M:9/8] z2 z!ped! !arpeggio![A,,F,A,]6!ped-up!!ped! |"^m.d." [D,F,B,D]3- x2 x x3!ped-up! || %138
V:3
 x2 | x2 !>![dbd']2 (6:4:5x/ [DB]/ x [DB]/ x/ (6:4:5x/ [DB]/ x [DB]/ x/ |[M:2/4] x4 | %3
[M:4/4] x23/3[K:bass] x/3 | x8 | %5
 x5/3[K:treble] x/3 !>![dbd']2 (6:4:5x/ [DB]/ x [DB]/ x/ (6:4:5x/ [DB]/ x [DB]/ x/ |[M:2/4] x4 | %7
[M:4/4] x23/3[K:bass] x/3 | x8 | x5/3[K:treble] x/3 !>![=db=d']2 x4 | x8 | %11
 x3 (^c/^F/) (_d/=F/)"^rit.""^86" z (d/=E/"^70"_E/=c/) | %12
 c/E/B/=D/ z/ E/c/E/ _c/E/B/D/ z/ =D/=B/D/ | %13
 _B/=D/=A/^C/ z/ D/_B/D/ B/D/A/C/"^poco rit.""^66" !fermata!z/ C/ (3(A/!fermata!C/^c/) | %14
 (6:4:3=A x3/2 c/ (6:4:3A x3/2 c/ x2/3 (6:4:2x3/2 c/ (6:4:3A x3/2 f/ | %15
 (6:4:1x2 x/3 (6:4:1c/ (6:4:3=A x3/2 c/ x2/3 (6:4:2x3/2 c/ (6:4:3A x3/2 B/ | %16
(6:4:6(x/G/F/=E/_E/=A/)(6:4:6(x/=A,/E/G/A/d/)(6:4:6(x/c/=B/_B/F/c/)(6:4:6(x/C/G/B/c/f/-) | %17
[M:2/4] (6:4:6(f/_f/e/d/A/e/)(6:4:6(x/E/B/c/e/g/) | x4 | x4 | x4 | x4 | x4 | %23
[M:4/4] x4 !>![A,DFA]4 | x8 | x4 !>![Adfa]4 | x8 | x8 | x8 | %29
[I:staff +1] (4:1:8=Acf^g=a[I:staff -1]cf!8va(!c''[I:staff +1] (4:1:8(GBef[I:staff -1]!courtesy!_gbe'b')[I:staff +1] (4:1:8FBde[I:staff -1]fbd'b'[I:staff +1] (4:1:8EGBd[I:staff -1]egbf' | %30
[I:staff +1] (4:1:8(B,fbd'[I:staff -1]f'bd'a')[I:staff +1] (4:1:8Fad'e'[I:staff -1]f'ad'a'[I:staff +1] (4:1:8Ead'=d'[I:staff -1]e'a_d'a'[I:staff +1] (4:1:8Dfac'!8va)![I:staff -1]!courtesy!_d'fae' | %31
[I:staff +1] (4:1:8(A,EAc[I:staff -1]eac'g')[I:staff +1] (4:1:8DGBc[I:staff -1]dgbf'[I:staff +1] (4:1:8CFAB[I:staff -1]cfae'[I:staff +1] (4:1:8B,EGA[I:staff -1]Begd' | %32
[I:staff +1] (4:1:8A,DFG[I:staff -1]Adfc'[I:staff +1] (4:1:8=G,C=EF[I:staff -1]=Gc=e_c'[I:staff +1] (4:1:8_G,_C_EF[I:staff -1]_G_c_eb[I:staff +1] (4:1:8=D,=A,=C=F[I:staff -1]^F=B=c=a | %33
 x8 | x8 | x8 | x8 |[M:12/8] x12 | x12 | %39
 z/!<(! (!tenuto![A-e]/[Adf])!tenuto![Adf]-!<)! [Adf]/!tenuto![Be]/[B-df]!tenuto![Bdf]- [Bdf]/(!tenuto![A-e]/[A-df])!tenuto![Adf]- [Adf]2 x | %40
 x45/8 (8:3:2d/e/ x6 | x12 |[M:9/8] D3- D/!pp!"^70"B,/C/D/=D/F/ x3 |[M:12/8] x12 | %44
 x77/8{/a} x3/8 x2 | %45
 z3/2 ([d-e]/[df]) !tenuto![df]>((e[df])) !tenuto![df]>(([ce][df])) !tenuto![df]>(([ce][df])) | %46
 !tenuto![df]3- x21/8 (8:3:2f/g/ x3 F2 =E | F6 (E2 D C2) x | %48
 x5/2{/[Af]} x/ x6 z/!>(! !tenuto!F/!tenuto!=E/!tenuto!_E/!tenuto!D/[I:staff +1]!tenuto!B,/!>)! | %49
[I:staff -1] [B,E]6-!8va(! [Be]2 (e'- e'=d'_d'!8va)! | c'_c'b-) b(e=d _dc_c B2 =A) | E=D_D C6 C3 | %52
[K:bass] z[K:treble] !tenuto![dfad']2 !tenuto![cfac']2 !tenuto![=Bfa=b] z !tenuto![F=Acf]2!>(! !tenuto![=E^Gc=e]2 !tenuto![_EAc_e]!>)! | %53
[K:bass] !>![D,F,_A,D]6[K:treble] !>![cf=ac']6 |[M:6/8][K:bass] x6 | x6 | x6 | %57
[M:9/8] x8[K:treble] x ||[K:C][M:12/8] x3 z A^G =G^F=F- FE_E ||[M:6/8][K:bass] x6 | x6 || %61
[M:9/8] x8[K:treble] x ||[M:12/8] x6 (_d_c_A G2"^78" !fermata!^F) | %63
 x!8va(! g'^f' =f'(b!8va)!^a =ag^f =fB)^A ||[M:6/8] =A^G=G- G^F=F ||[M:12/8] x3 [Gce]6 x3 | %66
 x3 !tenuto![G,CE]3[K:bass] x6 |[M:6/8][K:treble] x6 | !tenuto!G2 ^F E^A,[I:staff +1]B, | %69
 x ^C!p! x[I:staff -1] !tenuto!^E3 | !tenuto!=E3 !tenuto!^D3 | =D3 x3 | x6 | x2 af z (3(B/_B/A/ | %74
 (3_A/)G/e/ (3(f/e/_e/(3d/^c/=c/ (3B/_B/=A/)(3_A/_E/=D/(3_D/C/B,/- | B,2 (_a/^F/) x2 (g/G/) | %76
 x2 (^f/_A/) x2 (=f/G/) | x6 | x6 | x6 | x6 | x6 | x6 | x6 | x6 | x6 | x6 | x6 | x6 | x6 | x6 | %91
 (4:3:7x _b/_e'/a/c'/g/b/ f/b/_e/g/d/g/ | (4:3:8c/_e/_B/e/A/c/G/B/- x3 | %93
 (4:3:7x _b/_e'/a/c'/g/b/ f/b/_e/g/d/g/ | (4:3:8c/_e/_B/e/A/c/G/B/- x3 | x5[K:bass] x | x6 || %97
[K:Db][M:4/4][K:treble] x4 z !tenuto![Bdf]2 !tenuto!!fermata![B,DF] | x23/3[K:bass] x/3 | x8 | %100
 [A,,A,]4[K:treble] z !tenuto![A_cea]2 !tenuto!!fermata![A,EA] | x8 | x23/3[K:bass] x/3 | %103
 z[K:treble] !tenuto![=A,=D^F=A]!tenuto![F=B=d^f]!tenuto![df=a=d'] z !tenuto![^A^c=e^a]2 !tenuto![^A,=E] | %104
 x8 | (6:4:3d x3/2 c/ (6:4:3=A x3/2 c/ x2/3 (6:4:2x3/2 c/ (6:4:3A x3/2 f/ | %106
 d (6:4:2x c/ (6:4:3=A x3/2 c/ (6:4:3_A x3/2 c/ (6:4:3=A x3/2 B/ | %107
(6:4:6x/G/F/=E/_E/=A/(6:4:6x/=A,/E/G/A/d/(6:4:6x/c/=B/_B/F/c/(6:4:6x/C/G/B/c/f/- | %108
 (6:4:6f/_f/e/d/A/e/(6:4:6x/E/B/c/e/g/(6:4:6x/B/g/z/x/A/(6:4:6x/A/=f/z/e/G/ | %109
 (6:4:6g/G/e/z/d/f/ x6 | x8 ||[M:9/8] x3 [B,D]6 B_cde x3 |[M:12/8] x12 | x77/8{/d'} x3/8 x2 | %114
 z3/2 ([g-a]/[gb]) !tenuto![gb]>(a[gb]) !tenuto![gb]>([fa][gb]) !tenuto![gb]>([fa][gb]) | %115
 !tenuto![gb]3- x21/8 (8:3:2b/_c'/ z2 z (BAF) | %116
 E>([e-f][e=g]) !tenuto![eg]>(f[eg]) !tenuto![eg]>([=df][eg]) !tenuto![eg]>([df][eg]) | %117
 !tenuto![e=g]3- x21/8 (8:3:2g/a/ z2 z =G2 E | x3 z (c'=b _b=gc-) c=B_B | %119
 C2 (c' =b_b=g c2) x =B_BC/=B,/ | =G,3 (!tenuto!c2 =B _B3-) B(=A_A | %121
 =G2) [_GB]- [GB]F=E [_C_E]2 E- E =D2 | [B,E]2 =D- D_DC [=A,D]2 D- D>C_D | x6 !>![=A,=D^F=A]6 | %124
 x6 !>![_Adf_a]6 ||[M:6/8][K:bass] x6 | x6 | x6 | x6 | x6 |[K:treble] x6 | x6 | x5 D | x6 | x6 | %135
 x6 ||[M:9/8] x3 [DFA]6 | x9 || %138
V:4
 x2 | x3 (3x/ [DB]/ x/ x4 |[M:2/4] x4 |[M:4/4] x23/3[K:bass] x/3 | x8 | %5
 x5/3[K:treble] x4/3 (3x/ [DB]/ x/ x4 |[M:2/4] x4 |[M:4/4] x23/3[K:bass] x/3 | x8 | %9
 x5/3[K:treble] x19/3 | x8 | x8 | x8 | x8 | x8 | x8 | x8 |[M:2/4] x4 | x4 | x4 | x4 | x4 | x4 | %23
[M:4/4] x8 | x8 | x8 | x8 | x8 | x8 | x7/4!8va(! x25/4 | x7!8va)! x | x8 | x8 | x8 | x8 | x8 | x8 | %37
[M:12/8] x12 | x12 | x12 | x12 | x12 |[M:9/8] x9 |[M:12/8] x12 | x12 | x12 | x12 | %47
 x45/8 (8:3:2B/c/ x6 | x12 | x5!8va(! x7!8va)! | x12 | x12 |[K:bass] x[K:treble] x11 | %53
[K:bass] x[K:treble] x11 |[M:6/8][K:bass] x6 | x6 | x6 |[M:9/8] x8[K:treble] x || %58
[K:C][M:12/8] x9 A,3 ||[M:6/8][K:bass] x6 | x6 ||[M:9/8] x8[K:treble] x ||[M:12/8] x12 | %63
 !tenuto![G,B,=EG]2!8va(! x3!8va)! x7 ||[M:6/8] x6 ||[M:12/8] x12 | x4[K:bass] x8 | %67
[M:6/8][K:treble] x6 | x6 | x6 | x6 | x6 | x6 | x6 | x6 | x6 | x6 | x6 | x6 | x6 | x6 | x6 | x6 | %83
 x6 | x6 | x6 | x6 | x6 | x6 | x6 | x6 | x6 | x6 | x6 | x6 | x5[K:bass] x | x6 || %97
[K:Db][M:4/4][K:treble] x8 | x23/3[K:bass] x/3 | x8 | x[K:treble] x7 | x8 | x23/3[K:bass] x/3 | %103
 x[K:treble] x7 | x8 | x8 | x8 | x8 | x8 | x8 | x8 ||[M:9/8] x16 |[M:12/8] x12 | x12 | x12 | %115
 x5 z x6 | x12 | x5 z x6 | x12 | x12 | x12 | x12 | x12 | x12 | x12 ||[M:6/8][K:bass] x6 | x6 | x6 | %128
 x6 | x6 |[K:treble] x6 | x6 | x6 | x6 | x6 | x6 ||[M:9/8] x9 | x9 || %138
V:5
 x2 | !>![B,,,,B,,,]4 x4 |[M:2/4] x4 |[M:4/4] D4- D x3 | x8 | !>![B,,,,B,,,]6 x2 |[M:2/4] x4 | %7
[M:4/4] D4- D x3 | x8 | !>![B,,,,B,,,]4 x4 | =D>B, F, x5/2 [F,A,][K:treble] x/ [=DF] | %11
 x[K:bass] x7 | x G !tenuto!GF z G !tenuto!GF | x F !tenuto!F=E z E !tenuto!E^D | x8 | x8 | %16
 (6:4:4x D, x/ C,/ (6:4:4x D, x/ C,/ (6:4:4x F, x/ E,/ (6:4:4x F, x/ G,/ | %17
[M:2/4] (6:4:4x A, x/ G,/ (6:4:4x A, x/ B,/ | x4 | x4 | x4 | x4 | x4 | %23
[M:4/4] !>![B,,,,B,,,]4 !>![A,,,D,,F,,A,,]4 | [B,,,,B,,,]4 x4 | !>![D,,,D,,]4 !>![A,,D,F,A,]4 | %26
 !>![D,,,D,,]4 x4 | _D, x7 | x20/3[K:treble] x4/3 | x7/4[K:treble-8]!8va(! x25/4 | %30
 x15/2!8va)! x/4[K:treble] x/4 | x31/4[K:bass] x/4 | x8 | x2/3[K:treble] x4/3 =B/ x11/2 | %34
[K:bass] x8 | x8 | x2[K:treble] x6 |[M:12/8] x12 | x12 |[K:bass] x9[K:treble] x3/2 (F/[E_G]/A,/) | %40
 x9[K:bass] (G,2 =G,) | x12 |[M:9/8] x9 |[M:12/8][K:treble] x12 | x12 | %45
[K:bass] x2 !tenuto!A, x2 !tenuto!=G, x2 !tenuto!_G, x2 !tenuto!F, | x9 G,3 | D,6- D,2 (F, E,3) | %48
 x12 | x12 | x7/2[K:treble] x13/2[K:bass] x2 | x12 | %52
!8vb(! z!8vb)! !tenuto![A,DF]2 !tenuto![G,CEF]2 !tenuto![F,=B,=DF] z !tenuto![F,=A,C]2 !tenuto![=E,^G,C]2 !tenuto![_E,F,A,C] | %53
!8vb(! z!8vb)! !tenuto![A,,F,A,]2 !tenuto![A,,E,G,]2 !tenuto![A,,=D,F,] z !tenuto![F,,C,F,]2 !tenuto![=E,,C,=E,]2 !tenuto![_E,,C,_E,] | %54
[M:6/8] x6 | x6 | x6 |[M:9/8] x6[K:treble] x3 || %58
[K:C][M:12/8][K:bass] x3 z (D,,A,, D,A,,-A,) A,,3 ||[M:6/8] x6 | x6 ||[M:9/8] x6[K:treble] x3 || %62
[M:12/8] x3 z[K:bass]!p! (_E,,_C, _E,_A,)[K:treble]!mf! !tenuto!B- (=A,2 ^A,) | %63
[K:bass] !arpeggio!x3/4 x9/4 z!p! (E,,,E,, B,,E,B,) x3 ||[M:6/8] x3 B,3 || %65
[M:12/8] x3 z C,,G,, E,G,,E,- x3 | x3 [C,E,]3 x3 ^F,,^D,,!fermata!E,, |[M:6/8] x6 | x6 | x6 | x6 | %71
 x6 | x ^A,2 =A,2 G, | x4/3[K:treble] x19/6 (F/D/^C/ | =C/B,/)[K:bass] x5 | %75
 x3 G/!>(!D/^F/!>)!B,/ x | (_A/D/G/_B,/) x (=A/D/_A/=B,/) x | x6 | x =B,2 _B,2 _A, | x6 | x6 | x6 | %82
 x6 | x6 | x3[K:treble] x3 |[K:bass] x4[K:treble] x2 |[K:bass] x6 | x4[K:treble] x2 |[K:bass] x6 | %89
 x6 | x6 | x6 | x6 | x6 | x6 | x6 | x6 || %97
[K:Db][M:4/4] z !tenuto![F,,B,,D,F,]2 !tenuto![F,B,DF][K:treble] z[K:bass] !tenuto![F,B,DF]2 !tenuto![F,,B,,D,F,] | %98
 x3/4 [F,B,D]/4F x6 | x8 | %100
 z !tenuto![F,,B,,=D,F,]2 !tenuto![F,B,=DF][K:treble] z[K:bass] !tenuto![E,A,_CE]2 !tenuto![_F,,_C,_F,] | %101
 x3/4 [F,A,B,=D]/4F x6 | x8 | %103
 z !tenuto![=D,,=A,,]!tenuto![A,,=D,^F,=A,]!tenuto![F,=B,=D^F][K:treble] z[K:bass] !tenuto![=E,^A,^C=E]2 !tenuto![^F,,^C,] | %104
 x3/4 ([=A,,=D,^F,]/4=A,) x6 | x8 | x8 | %107
 (6:4:4x D, x/ C,/ (6:4:4x D, x/ C,/ (6:4:4x F, x/ E,/ (6:4:4x F, x/ G,/ | %108
 (6:4:4x A, x/ G,/ (6:4:4x A, x/ B,/ (6:4:4x B, x/ _C/ (6:4:4x =C x/ D/ | x2/3[K:treble] x22/3 | %110
[K:bass] x4[K:treble] x4 ||[M:9/8][K:bass] G,,3 G,,6 x7 |[M:12/8][K:treble] x12 | x12 | %114
[K:bass] x2 !tenuto!D x2 !tenuto!C x2 !tenuto!_C x2 !tenuto!B, | x9 (_CB,A,) | %116
 x2 !tenuto!B, x2 !tenuto!=A, x2 !tenuto!_A, x2 =G, | x12 | x12 | x12 | x12 | x12 | x12 | %123
 [B,,,,F,,,B,,,]6 !>![=A,,,=D,,^F,,=A,,]6 | [B,,,,F,,,B,,,]6 !>![_A,,D,F,_A,]6[K:treble] || %125
[M:6/8][K:bass] x6 | x6 | x6 | x6 | B,,,6 | B,,,6 | B,,,6 | B,,,6 | [B,,F,D]3[K:treble] x3 | %134
 x[K:bass] x5 | x6 || %136
[M:9/8] x3/2 x/4-x/4-x/4-[I:staff -1]x/4-x/4-x/4- x41/8!pp![I:staff +1] x/8-x/8-x/8-x/8-x/8-x/8-x/8- | %137
 [B,,,F,,B,,]3- x6 || %138
V:6
 x2 | x8 |[M:2/4] x4 |[M:4/4] x8 | x8 | x8 |[M:2/4] x4 |[M:4/4] x8 | x8 | x8 | %10
 x13/2[K:treble] x3/2 | x[K:bass] x7 | x8 | x8 | x8 | x8 | x8 |[M:2/4] x4 | x4 | x4 | x4 | x4 | %22
 x4 |[M:4/4] !>![B,,B,]4 x4 | !>![B,,B,]4 x4 | !>!_D,4 x4 | !>!D,4 x4 | x8 | x20/3[K:treble] x4/3 | %29
 x7/4[K:treble-8]!8va(! x25/4 | x15/2!8va)! x/4[K:treble] x/4 | x31/4[K:bass] x/4 | x8 | %33
 x2/3[K:treble] x22/3 |[K:bass] x8 | x8 | x2[K:treble] x6 |[M:12/8] x12 | x12 | %39
[K:bass] x9[K:treble] x3 | x9[K:bass] x3 | x12 |[M:9/8] x9 |[M:12/8][K:treble] x12 | x12 | %45
[K:bass] x12 | x12 | x12 | x12 | x12 | x7/2[K:treble] x13/2[K:bass] x2 | x12 |!8vb(! x!8vb)! x11 | %53
!8vb(! x!8vb)! x11 |[M:6/8] x6 | x6 | x6 |[M:9/8] x6[K:treble] x3 ||[K:C][M:12/8][K:bass] x12 || %59
[M:6/8] x6 | x6 ||[M:9/8] x6[K:treble] x3 ||[M:12/8] x4[K:bass] x4[K:treble] x4 |[K:bass] x12 || %64
[M:6/8] x6 ||[M:12/8] x12 | x12 |[M:6/8] x6 | x6 | x6 | x6 | x6 | x6 | x4/3[K:treble] x14/3 | %74
 x[K:bass] x5 | x6 | x6 | x6 | x6 | x6 | x6 | x6 | x6 | x6 | x3[K:treble] x3 | %85
[K:bass] x4[K:treble] x2 |[K:bass] x6 | x4[K:treble] x2 |[K:bass] x6 | x6 | x6 | x6 | x6 | x6 | %94
 x6 | x6 | x6 ||[K:Db][M:4/4] [B,,,,B,,,]4[K:treble] x[K:bass] x3 | [B,,B,]2 x6 | x8 | %100
 x4[K:treble] x[K:bass] x3 | !>![B,,B,]2 x6 | x8 | x4[K:treble] x[K:bass] x3 | !>![=D,=D]2 x6 | %105
 x8 | x8 | x8 | x8 | x2/3[K:treble] x22/3 |[K:bass] x4[K:treble] x4 ||[M:9/8][K:bass] x16 | %112
[M:12/8][K:treble] x12 | x12 |[K:bass] x12 | x12 | x12 | x12 | x12 | x12 | x12 | x12 | x12 | %123
 !tenuto![B,,F,B,]6 x6 | !tenuto![B,,F,B,]6 x[K:treble] x5 ||[M:6/8][K:bass] x6 | x6 | x6 | x6 | %129
 x6 | x6 | x3 B,,3 | x3 B,,3- | x[K:treble] x4 x | x[K:bass] x5 | x6 ||[M:9/8] x9 | x9 || %138
V:7
 x2 | x8 |[M:2/4] x4 |[M:4/4] x8 | x8 | x8 |[M:2/4] x4 |[M:4/4] x8 | x8 | x8 | %10
 x13/2[K:treble] x3/2 | x[K:bass] x7 | x8 | x8 | x8 | x8 | x8 |[M:2/4] x4 | x4 | x4 | x4 | x4 | %22
 x4 |[M:4/4] x8 | x8 | x8 | x8 | x8 | x20/3[K:treble] x4/3 | x7/4[K:treble-8]!8va(! x25/4 | %30
 x15/2!8va)! x/4[K:treble] x/4 | x31/4[K:bass] x/4 | x8 | x2/3[K:treble] x22/3 |[K:bass] x8 | x8 | %36
 x2[K:treble] x6 |[M:12/8] x12 | x12 |[K:bass] x9[K:treble] x3 | x9[K:bass] x3 | x12 |[M:9/8] x9 | %43
[M:12/8][K:treble] x12 | x12 |[K:bass] x12 | x12 | x12 | x12 | x12 | %50
 x7/2[K:treble] x13/2[K:bass] x2 | x12 |!8vb(! x!8vb)! x11 |!8vb(! x!8vb)! x11 |[M:6/8] x6 | x6 | %56
 x6 |[M:9/8] x6[K:treble] x3 ||[K:C][M:12/8][K:bass] x12 ||[M:6/8] x6 | x6 || %61
[M:9/8] x6[K:treble] x3 ||[M:12/8] x4[K:bass] x4[K:treble] x4 |[K:bass] x12 ||[M:6/8] x6 || %65
[M:12/8] x12 | x12 |[M:6/8] x6 | x6 | x6 | x6 | x6 | x6 | x4/3[K:treble] x14/3 | x[K:bass] x5 | %75
 x6 | x6 | x6 | x6 | x6 | x6 | x6 | x6 | x6 | x3[K:treble] x3 |[K:bass] x4[K:treble] x2 | %86
[K:bass] x6 | x4[K:treble] x2 |[K:bass] x6 | x6 | x6 | x6 | x6 | x6 | x6 | x6 | x6 || %97
[K:Db][M:4/4] x4[K:treble] x[K:bass] x3 | [B,,,,B,,,]2 x6 | x8 | x4[K:treble] x[K:bass] x3 | %101
 [B,,,,B,,,]2 x6 | x8 | x4[K:treble] x[K:bass] x3 | [=D,,,=D,,]2 x6 | x8 | x8 | x8 | x8 | %109
 x2/3[K:treble] x22/3 |[K:bass] x4[K:treble] x4 ||[M:9/8][K:bass] x16 |[M:12/8][K:treble] x12 | %113
 x12 |[K:bass] x12 | x12 | x12 | x12 | x12 | x12 | x12 | x12 | x12 | x12 | x7[K:treble] x5 || %125
[M:6/8][K:bass] x6 | x6 | x6 | x6 | x6 | x6 | x6 | x6 | x[K:treble] x5 | x[K:bass] x5 | x6 || %136
[M:9/8] x9 | x9 || %138

